svgs/regular/plus-minus.svg

<svg xmlns="http://www.w3.org/2000/svg" viewBox="0 0 384 512"><!--! Font Awesome Pro 6.6.0 by @fontawesome - https://fontawesome.com License - https://fontawesome.com/license (Commercial License) Copyright 2024 Fonticons, Inc. --><path d="M216 32c0-13.3-10.7-24-24-24s-24 10.7-24 24l0 120L48 152c-13.3 0-24 10.7-24 24s10.7 24 24 24l120 0 0 120c0 13.3 10.7 24 24 24s24-10.7 24-24l0-120 120 0c13.3 0 24-10.7 24-24s-10.7-24-24-24l-120 0 0-120zM8 488c0 13.3 10.7 24 24 24l320 0c13.3 0 24-10.7 24-24s-10.7-24-24-24L32 464c-13.3 0-24 10.7-24 24z"/></svg>

<svg xmlns="http://www.w3.org/2000/svg" viewBox="0 0 384 512"><!--! Font Awesome Pro 6.4.0 by @fontawesome - https://fontawesome.com License - https://fontawesome.com/license (Commercial License) Copyright 2023 Fonticons, Inc. --><path d="M216 32c0-13.3-10.7-24-24-24s-24 10.7-24 24V152H48c-13.3 0-24 10.7-24 24s10.7 24 24 24H168V320c0 13.3 10.7 24 24 24s24-10.7 24-24V200H336c13.3 0 24-10.7 24-24s-10.7-24-24-24H216V32zM8 488c0 13.3 10.7 24 24 24H352c13.3 0 24-10.7 24-24s-10.7-24-24-24H32c-13.3 0-24 10.7-24 24z"/></svg>
